X: 22236
T: La Fête De Village
R: reel
M: 4/4
K: Gmajor
|:"G" d3 d cBAB|"C" c2 B2 A2 GA|"G" B2 G2 F2 G2|"D" AGFE D4|
"G" d3 d cBAB|"C" c2 B2 A2 GA|"G" B2 G2 "D" EAFD|"G" G4 GABc:|
|:"G" b,DGD "C" CEGE|"G" b,DGD "C" CEGE|"G" G2d2c2B2|"D" AGAB A4|
"G"b,DGD "C" CEGE|"G"b,DGD "C" CEGE|"D" G2B2A2d2|"G"G4 z2 GG:|

